ticketmanagementfrontend/src/images/ticketopen.svg

<svg xmlns="http://www.w3.org/2000/svg" xmlns:xlink="http://www.w3.org/1999/xlink" width="500" zoomAndPan="magnify" viewBox="0 0 375 374.999991" height="500" preserveAspectRatio="xMidYMid meet" version="1.0"><defs><clipPath id="4dc2c8a42e"><path d="M 99.820312 112.371094 L 249.820312 112.371094 L 249.820312 222.621094 L 99.820312 222.621094 Z M 99.820312 112.371094 " clip-rule="nonzero"/></clipPath></defs><g clip-path="url(#4dc2c8a42e)"><path fill="#8ee124" d="M 238.046875 156.867188 L 222.433594 156.867188 L 179.457031 124.632812 C 180.910156 123.347656 181.84375 121.488281 181.84375 119.398438 C 181.84375 115.523438 178.691406 112.371094 174.820312 112.371094 C 170.945312 112.371094 167.792969 115.523438 167.792969 119.398438 C 167.792969 121.488281 168.726562 123.347656 170.179688 124.632812 L 127.203125 156.867188 L 111.589844 156.867188 C 105.136719 156.867188 99.882812 162.117188 99.882812 168.574219 L 99.882812 210.726562 C 99.882812 217.183594 105.136719 222.433594 111.589844 222.433594 L 238.046875 222.433594 C 244.503906 222.433594 249.753906 217.183594 249.753906 210.726562 L 249.753906 168.574219 C 249.753906 162.117188 244.503906 156.867188 238.046875 156.867188 Z M 174.820312 117.054688 C 176.109375 117.054688 177.160156 118.109375 177.160156 119.398438 C 177.160156 120.6875 176.109375 121.738281 174.820312 121.738281 C 173.527344 121.738281 172.476562 120.6875 172.476562 119.398438 C 172.476562 118.109375 173.527344 117.054688 174.820312 117.054688 Z M 174.820312 127.007812 L 214.628906 156.867188 L 135.007812 156.867188 Z M 245.070312 210.726562 C 245.070312 214.601562 241.917969 217.75 238.046875 217.75 L 111.589844 217.75 C 107.71875 217.75 104.566406 214.601562 104.566406 210.726562 L 104.566406 168.574219 C 104.566406 164.703125 107.71875 161.550781 111.589844 161.550781 L 238.046875 161.550781 C 241.917969 161.550781 245.070312 164.703125 245.070312 168.574219 Z M 245.070312 210.726562 " fill-opacity="1" fill-rule="nonzero"/></g><path fill="#8ee124" d="M 179.503906 175.601562 L 179.503906 203.699219 C 179.503906 204.992188 180.550781 206.042969 181.84375 206.042969 L 195.894531 206.042969 L 195.894531 201.359375 L 184.1875 201.359375 L 184.1875 191.992188 L 195.894531 191.992188 L 195.894531 187.308594 L 184.1875 187.308594 L 184.1875 177.941406 L 195.894531 177.941406 L 195.894531 173.257812 L 181.84375 173.257812 C 180.550781 173.257812 179.503906 174.308594 179.503906 175.601562 Z M 179.503906 175.601562 " fill-opacity="1" fill-rule="nonzero"/><path fill="#8ee124" d="M 214.628906 193.78125 L 205.015625 174.554688 C 204.527344 173.582031 203.445312 173.074219 202.382812 173.320312 C 201.324219 173.570312 200.578125 174.511719 200.578125 175.601562 L 200.578125 206.042969 L 205.261719 206.042969 L 205.261719 185.519531 L 214.875 204.75 C 215.28125 205.554688 216.097656 206.042969 216.96875 206.042969 C 217.148438 206.042969 217.328125 206.023438 217.507812 205.980469 C 218.566406 205.730469 219.3125 204.789062 219.3125 203.699219 L 219.3125 173.257812 L 214.628906 173.257812 Z M 214.628906 193.78125 " fill-opacity="1" fill-rule="nonzero"/><path fill="#8ee124" d="M 142.035156 173.257812 C 136.867188 173.257812 132.667969 177.460938 132.667969 182.625 L 132.667969 196.675781 C 132.667969 201.839844 136.867188 206.042969 142.035156 206.042969 C 147.199219 206.042969 151.402344 201.839844 151.402344 196.675781 L 151.402344 182.625 C 151.402344 177.460938 147.199219 173.257812 142.035156 173.257812 Z M 146.71875 196.675781 C 146.71875 199.257812 144.617188 201.359375 142.035156 201.359375 C 139.453125 201.359375 137.351562 199.257812 137.351562 196.675781 L 137.351562 182.625 C 137.351562 180.042969 139.453125 177.941406 142.035156 177.941406 C 144.617188 177.941406 146.71875 180.042969 146.71875 182.625 Z M 146.71875 196.675781 " fill-opacity="1" fill-rule="nonzero"/><path fill="#8ee124" d="M 165.453125 173.257812 L 158.425781 173.257812 C 157.132812 173.257812 156.085938 174.308594 156.085938 175.601562 L 156.085938 206.042969 L 160.769531 206.042969 L 160.769531 191.992188 L 165.453125 191.992188 C 170.617188 191.992188 174.820312 187.792969 174.820312 182.625 C 174.820312 177.460938 170.617188 173.257812 165.453125 173.257812 Z M 165.453125 187.308594 L 160.769531 187.308594 L 160.769531 177.941406 L 165.453125 177.941406 C 168.035156 177.941406 170.136719 180.042969 170.136719 182.625 C 170.136719 185.207031 168.035156 187.308594 165.453125 187.308594 Z M 165.453125 187.308594 " fill-opacity="1" fill-rule="nonzero"/></svg>

<svg xmlns="http://www.w3.org/2000/svg" width="500" viewBox="0 0 375 375" height="500" version="1.0"><defs><clipPath id="a"><path d="M99.82 112.371h150v110.25h-150Zm0 0"/></clipPath></defs><g clip-path="url(#a)"><path fill="#8ee124" d="M238.047 156.867h-15.613l-42.977-32.234c1.453-1.285 2.387-3.145 2.387-5.235 0-3.875-3.153-7.027-7.024-7.027a7.035 7.035 0 0 0-7.027 7.027c0 2.09.934 3.95 2.387 5.235l-42.977 32.234H111.59c-6.453 0-11.707 5.25-11.707 11.707v42.153c0 6.457 5.254 11.707 11.707 11.707h126.457c6.457 0 11.707-5.25 11.707-11.707v-42.153c0-6.457-5.25-11.707-11.707-11.707m-63.227-39.812c1.29 0 2.34 1.054 2.34 2.343 0 1.29-1.05 2.34-2.34 2.34a2.345 2.345 0 0 1-2.343-2.34 2.347 2.347 0 0 1 2.343-2.343m0 9.953 39.809 29.86h-79.621Zm70.25 83.719a7.03 7.03 0 0 1-7.023 7.023H111.59a7.03 7.03 0 0 1-7.024-7.023v-42.153c0-3.87 3.153-7.023 7.024-7.023h126.457c3.871 0 7.023 3.152 7.023 7.023Zm0 0"/></g><path fill="#8ee124" d="M179.504 175.602v28.097a2.34 2.34 0 0 0 2.34 2.344h14.05v-4.684h-11.707v-9.367h11.708v-4.683h-11.708v-9.368h11.708v-4.683h-14.051a2.34 2.34 0 0 0-2.34 2.344m35.125 18.179-9.613-19.226a2.34 2.34 0 0 0-4.437 1.047v30.441h4.683V185.52l9.613 19.23a2.35 2.35 0 0 0 2.633 1.23 2.34 2.34 0 0 0 1.804-2.28v-30.442h-4.683Zm-72.594-20.523c-5.168 0-9.367 4.203-9.367 9.367v14.05c0 5.165 4.2 9.368 9.367 9.368 5.164 0 9.367-4.203 9.367-9.367v-14.051c0-5.164-4.203-9.367-9.367-9.367m4.684 23.418a4.69 4.69 0 0 1-4.684 4.683 4.69 4.69 0 0 1-4.683-4.683v-14.051a4.69 4.69 0 0 1 4.683-4.684 4.69 4.69 0 0 1 4.684 4.684Zm18.734-23.418h-7.027a2.34 2.34 0 0 0-2.34 2.344v30.441h4.684v-14.05h4.683c5.164 0 9.367-4.2 9.367-9.368 0-5.164-4.203-9.367-9.367-9.367m0 14.05h-4.683v-9.367h4.683a4.69 4.69 0 0 1 4.684 4.684 4.69 4.69 0 0 1-4.684 4.684m0 0"/></svg>
